X:1
T:Adjø Du Forlovede Blomme
T:Adjø Du Forlovede Blomme
T:Nedtegnet med siffernoter av Ole Andersen Mærlie (1873)
L:1/8
Q:1/4=70
M:2/4
K:F
V:1 treble nm="Stemme" snm="St."
V:1
 C2 |"F" F2 GA | F2 GA |"C7" B4 |"F" A2"C7" G2 |"F" A2 BA |"C7" G2 FG |"F" F4 | z2 C2 |"F" F2 GA | %10
w: Ad-|jø du for-|lo- ve- de|Blom-|me mit|Hjer- te var|lys- tig og|glad.|Tenk|al- dri- gen|
 F2 GA |"C7" B4 |"F" A2"C7" G2 |"F" A2 BA |"C7" G2 FG |"F" F4 | z2 c2 | c2 Ac | c2 Ac |"C7" c4 | %20
w: mer paa min|Kom-|me. Jeg|ten- ker deg|al- drig at|ta.|Det|kan ik- ke|nyt- te du|bi-|
 B2"F" A2 |"C7" G2 AB | G2 AB | B4 |"F" A2 A2 | F2 GA | A2 FA |"C" G4 | z2 A2 |"F" F2 GA | F2 GA | %31
w: er jeg|bli- ver ei|me- re din|fri-|er. Nu|skal du faa|lig- ge i|Ro.|Det|kan in- te|nyt- te du|
"Bb" B4 |"F" A2"C7" G2 |"F" A2 BA |"C7" G2 FG |"F" F4- | F2 |] %37
w: si-|er at|du mig har|væ- ret for|god.||

